X: 604
%
U:~=!turn!
T: Teviot Bridge
C:
O:Scotland
B:Keith Norman MacDonald : "The Skye collection of the best reels & strathspeys extant" : 1887
Z:Ralph Palmer
R:Jig
M:6/8
L:1/8
K:G
e | dBG D2 G | E2 G D2 G | DED D2 d | c2 B A2 G | dBG D2 G | E2 G D2 B | c2 e dBG | A3 G2 ||
|: e | dBG GBd | efe efg | dBG GBG | AFD D2 e | dBG GBd | gfe dcB | "2nd"ceg xxx & "_1st"c3 dBG | A3 G2 :|


